images/Pagination-10.svg

<svg width="55" height="55" viewBox="0 0 55 55" fill="none" xmlns="http://www.w3.org/2000/svg">
<rect x="0.5" y="0.5" width="54" height="54" rx="3.5" fill="#82B3D3" stroke="#82B3D3"/>
<path d="M18.1723 31.8H20.9523V23.9L21.2523 22.54L20.2923 23.72L18.5123 24.94L17.4123 23.44L21.9723 19.76H23.4323V31.8H26.1523V34H18.1723V31.8ZM28.3 26.98C28.3 24.5267 28.72 22.7067 29.56 21.52C30.4 20.32 31.6067 19.72 33.18 19.72C34.86 19.72 36.0933 20.3133 36.88 21.5C37.6667 22.6733 38.06 24.5 38.06 26.98C38.06 29.4467 37.6333 31.28 36.78 32.48C35.94 33.68 34.7333 34.28 33.16 34.28C31.4933 34.28 30.2667 33.6533 29.48 32.4C28.6933 31.1333 28.3 29.3267 28.3 26.98ZM30.9 26.98C30.9 28.6067 31.0733 29.8667 31.42 30.76C31.78 31.64 32.3667 32.08 33.18 32.08C33.9667 32.08 34.54 31.6733 34.9 30.86C35.2733 30.0467 35.46 28.7533 35.46 26.98C35.46 25.3667 35.2867 24.12 34.94 23.24C34.5933 22.36 34 21.92 33.16 21.92C32.36 21.92 31.78 22.3333 31.42 23.16C31.0733 23.9867 30.9 25.26 30.9 26.98Z" fill="white"/>
</svg>

<svg width="55" height="55" fill="none" xmlns="http://www.w3.org/2000/svg"><rect x=".5" y=".5" width="54" height="54" rx="3.5" fill="#82B3D3" stroke="#82B3D3"/><path d="M18.17 31.8h2.78v-7.9l.3-1.36-.96 1.18-1.78 1.22-1.1-1.5 4.56-3.68h1.46V31.8h2.72V34h-7.98v-2.2Zm10.13-4.82c0-2.45.42-4.27 1.26-5.46a4.15 4.15 0 0 1 3.62-1.8c1.68 0 2.91.6 3.7 1.78.79 1.17 1.18 3 1.18 5.48 0 2.47-.43 4.3-1.28 5.5a4.15 4.15 0 0 1-3.62 1.8c-1.67 0-2.9-.63-3.68-1.88-.79-1.27-1.18-3.07-1.18-5.42Zm2.6 0c0 1.63.17 2.89.52 3.78.36.88.95 1.32 1.76 1.32.79 0 1.36-.4 1.72-1.22.37-.81.56-2.1.56-3.88 0-1.61-.17-2.86-.52-3.74-.35-.88-.94-1.32-1.78-1.32-.8 0-1.38.41-1.74 1.24-.35.83-.52 2.1-.52 3.82Z" fill="#fff"/></svg>
